packages/swarm-icons/src/icons/large/Plus Circled.svg

<svg xmlns="http://www.w3.org/2000/svg" width="28" height="28" viewBox="0 0 28 28">
  <path fill="#212121" d="M14,24 C19.5228475,24 24,19.5228475 24,14 C24,8.4771525 19.5228475,4 14,4 C8.4771525,4 4,8.4771525 4,14 C4,19.5228475 8.4771525,24 14,24 Z M15,13 L15,9 C15,8.44771525 14.5522847,8 14,8 C13.4477153,8 13,8.44771525 13,9 L13,13 L9,13 C8.44771525,13 8,13.4477153 8,14 C8,14.5522847 8.44771525,15 9,15 L13,15 L13,19 C13,19.5522847 13.4477153,20 14,20 C14.5522847,20 15,19.5522847 15,19 L15,15 L19,15 C19.5522847,15 20,14.5522847 20,14 C20,13.4477153 19.5522847,13 19,13 L15,13 Z M14,26 C7.372583,26 2,20.627417 2,14 C2,7.372583 7.372583,2 14,2 C20.627417,2 26,7.372583 26,14 C26,20.627417 20.627417,26 14,26 Z"/>
</svg>

<svg xmlns="http://www.w3.org/2000/svg" width="28" height="28"><path fill="#212121" d="M14 24c5.523 0 10-4.477 10-10S19.523 4 14 4 4 8.477 4 14s4.477 10 10 10zm1-11V9a1 1 0 00-2 0v4H9a1 1 0 000 2h4v4a1 1 0 002 0v-4h4a1 1 0 000-2h-4zm-1 13C7.373 26 2 20.627 2 14S7.373 2 14 2s12 5.373 12 12-5.373 12-12 12z"/></svg>
